X: 1
T: the Crooked Hornpipe
C: Ralph Page
R: hornpipe
Z: 2007 John Chambers <jc:trillian.mit.edu>
S: The Ralph Page Book of Contras, 1969, EFDSS
M: C|
L: 1/8
K: D
A2 \
| "D"Aafd "A7"Agec | "D"Aafd dcBA | "G"BgAf "Em"GeFe | "A7"efge dcBA | "D"Aafd "A7"Agec |
| "D"defd A2dc | "G"Bcde "A7"fa^ga | "D"d2d2 d2 :: cd | "A"eAfA gAfA | "A7"eAce dcBA |
| "G"BbAa "Em"GgFf | "A7"efge dcBA | "G"Bbge "D"Aafd | "A7"Ggec "Bm"d2dc | "Em"Bcde "A7"fABc | "D"d2f2 d2 :|

%%sep 1 1 500

